svgs/light/kidneys.svg

<svg xmlns="http://www.w3.org/2000/svg" viewBox="0 0 640 512"><!-- Font Awesome Pro 6.0.0-alpha2 by @fontawesome - https://fontawesome.com License - https://fontawesome.com/license (Commercial License) --><path d="M243.782 216L202.54 195.379C207.866 185.566 214.538 176.064 223.922 167.668C242.919 150.725 254.264 127.262 255.838 101.629C257.358 74.859 248.116 49.539 229.825 30.182C211.702 11.002 186.192 0 159.836 0C136.333 0 113.655 8.639 95.975 24.324C14.727 96.912 -18.242 203.664 9.86 302.994L12.997 314.182C25.141 357.264 59.708 384 103.221 384C135.073 384 165.153 369.389 183.686 344.914C201.315 321.633 206.352 292.221 197.872 262.098L194.524 250.504C192.276 242.545 191.911 234.373 192.602 226.191L229.469 244.625C245.844 252.812 256.001 269.25 256.001 287.562V496C256.001 504.844 263.157 512 272.001 512S288.001 504.844 288.001 496V287.562C288.001 257.062 271.063 229.625 243.782 216ZM163.784 259.387L167.073 270.77C180.866 319.766 141.62 352 103.221 352C77.903 352 52.954 337.992 43.805 305.541L40.649 294.283C15.917 206.855 45.252 112.549 117.211 48.26C129.053 37.754 144.18 32 159.836 32C196.276 32 226.006 62.518 223.901 99.666C222.85 116.801 215.352 132.436 202.59 143.818C166.94 175.711 152.336 218.863 163.784 259.387ZM544.026 24.324C526.346 8.639 503.669 0 480.165 0C453.809 0 428.299 11.002 410.176 30.182C391.885 49.539 382.643 74.859 384.163 101.629C385.737 127.262 397.083 150.725 416.079 167.668C425.463 176.064 432.135 185.566 437.461 195.379L396.219 216C368.938 229.625 352.001 257.062 352.001 287.562V496C352.001 504.844 359.157 512 368.001 512S384.001 504.844 384.001 496V287.562C384.001 269.25 394.157 252.812 410.532 244.625L447.399 226.191C448.09 234.373 447.725 242.545 445.477 250.504L442.129 262.098C433.649 292.221 438.686 321.633 456.315 344.914C474.848 369.389 504.928 384 536.78 384C580.294 384 614.86 357.264 627.004 314.182L630.141 302.994C658.243 203.664 625.274 96.912 544.026 24.324ZM599.352 294.283L596.196 305.541C587.047 337.992 562.098 352 536.78 352C498.381 352 459.135 319.766 472.928 270.77L476.217 259.387C487.665 218.863 473.061 175.711 437.411 143.818C424.649 132.436 417.151 116.801 416.1 99.666C413.995 62.518 443.725 32 480.165 32C495.821 32 510.948 37.754 522.79 48.26C594.749 112.549 624.085 206.855 599.352 294.283Z"/></svg>

<svg xmlns="http://www.w3.org/2000/svg" viewBox="0 0 640 512"><!--! Font Awesome Pro 6.3.0 by @fontawesome - https://fontawesome.com License - https://fontawesome.com/license (Commercial License) Copyright 2023 Fonticons, Inc. --><path d="M243.8 216L202.5 195.4c5.326-9.812 11.97-19.35 21.35-27.75c18.1-16.94 30.37-40.37 31.95-66c1.52-26.77-7.723-52.09-26.01-71.45C211.7 11 186.2 0 159.8 0C136.3 0 113.7 8.666 95.99 24.35C14.74 96.94-18.24 203.7 9.859 302.1l3.137 11.06C25.14 357.1 59.71 384 103.2 384c31.85 0 61.93-14.61 80.46-39.09c17.63-23.28 22.67-52.85 14.19-82.97l-3.35-11.44C192.3 242.5 191.9 234.4 192.6 226.2l36.87 18.43C245.8 252.8 256 269.3 256 287.6l-.0792 208.4c0 8.844 7.156 16 16 16S288 504.8 288 496V287.6C288 257.1 271.1 229.6 243.8 216zM163.8 259.4l3.289 11.38C180.9 319.8 141.6 352 103.2 352c-25.32 0-50.27-14.01-59.42-46.46L40.65 294.3C15.92 206.9 45.25 112.5 117.2 48.26C129.1 37.75 144.2 32 159.8 32C196.3 32 226 62.52 223.9 99.67C222.8 116.8 215.4 132.4 202.6 143.8C166.9 175.7 152.3 218.9 163.8 259.4zM543.9 24.27C526.2 8.582 503.7 0 480.2 0c-26.36 0-51.87 11-69.99 30.18c-18.29 19.36-27.53 44.68-26.01 71.45c1.574 25.63 13.04 49.14 32.03 66.09c9.385 8.396 15.94 17.85 21.27 27.66L396.2 216C368.9 229.6 352 257.1 352 287.6V496c0 8.844 7.151 15.1 15.1 15.1s16-7.159 16-16L384 287.6c0-18.31 10.16-34.75 26.53-42.94l36.87-18.43c.6914 8.182 .3262 16.35-1.922 24.31l-3.348 11.59c-8.48 30.12-3.443 59.54 14.19 82.82C474.8 369.4 504.9 384 536.8 384c43.51 0 78.08-26.74 90.22-69.82l3.137-11.19C658.2 203.7 625.2 96.86 543.9 24.27zM599.4 294.3l-3.156 11.26C587 337.1 562.1 352 536.8 352c-38.4 0-77.64-32.23-63.85-81.23l3.289-11.38c11.45-40.52-3.156-83.68-38.81-115.6c-12.76-11.38-20.26-27.02-21.31-44.15C413.1 62.52 443.7 32 480.2 32c15.66 0 30.78 5.754 42.63 16.26C594.7 112.5 624.1 206.9 599.4 294.3z"/></svg>
